X: 26607
T: Mick Rooney's
R: hornpipe
M: 4/4
K: Cmajor
(3GAB|:cBce edde|cdec (3AcA G2|GAce agec|(3fed ce d2 (3GAB|
cBce edde|cdec (3AcA GF|EGce fdBd|1 Bc (3ccB c2 (3GAB:|2 Bc (3ccB c2gf||
|:e2ef gage|cfec (3AAA G2|GAce agec|(3fed ce d2 (3GAB|
cBce edde|cdec (3AcA GF|EGce fdBd|1 Bc (3ccB c2gf:|2 Bc (3ccB c2(3GAB||

